X:7164
T:The Old Woman Tossed Up In A Blanket
O:england
M:6/8
C:
S:Chingford MM
N:
A:Chingford
R:Jig
%P:A.(AB)$^5$
P:A.(AB)5
L:1/8
K:G
I:speed 300
P:A
|:\
d|BAG Bcd|edc BAG|cBc A2 B|cBA G2:|\
P:B
g|gfg gfg|gfg afd|dcB cde|efg d2 \
c|BAG Bcd|edc BAG|cBc A2 B|cBA G2||


